static/code.svg

<svg fill="none" height="96" viewBox="0 0 96 96" width="96" xmlns="http://www.w3.org/2000/svg" xmlns:xlink="http://www.w3.org/1999/xlink"><filter id="a" color-interpolation-filters="sRGB" filterUnits="userSpaceOnUse" height="88.5558" width="112.058" x="-8.05835" y="15.1959"><feFlood flood-opacity="0" result="BackgroundImageFix"/><feColorMatrix in="SourceAlpha" type="matrix" values="0 0 0 0 0 0 0 0 0 0 0 0 0 0 0 0 0 0 127 0"/><feOffset/><feGaussianBlur stdDeviation="4"/><feColorMatrix type="matrix" values="0 0 0 0 0 0 0 0 0 0 0 0 0 0 0 0 0 0 0.25 0"/><feBlend in2="BackgroundImageFix" mode="overlay" result="effect1_dropShadow"/><feBlend in="SourceGraphic" in2="effect1_dropShadow" mode="normal" result="shape"/></filter><filter id="b" color-interpolation-filters="sRGB" filterUnits="userSpaceOnUse" height="111.505" width="46" x="58" y="-7.75256"><feFlood flood-opacity="0" result="BackgroundImageFix"/><feColorMatrix in="SourceAlpha" type="matrix" values="0 0 0 0 0 0 0 0 0 0 0 0 0 0 0 0 0 0 127 0"/><feOffset/><feGaussianBlur stdDeviation="4"/><feColorMatrix type="matrix" values="0 0 0 0 0 0 0 0 0 0 0 0 0 0 0 0 0 0 0.25 0"/><feBlend in2="BackgroundImageFix" mode="overlay" result="effect1_dropShadow"/><feBlend in="SourceGraphic" in2="effect1_dropShadow" mode="normal" result="shape"/></filter><linearGradient id="c" gradientUnits="userSpaceOnUse" x1="47.9417" x2="47.9417" y1=".247498" y2="95.7526"><stop offset="0" stop-color="#fff"/><stop offset="1" stop-color="#fff" stop-opacity="0"/></linearGradient><mask id="d" height="96" maskUnits="userSpaceOnUse" width="96" x="0" y="0"><path clip-rule="evenodd" d="m68.0754 95.3445c1.512.589 3.2361.5512 4.7622-.1831l19.7648-9.5104c2.0769-.9994 3.3976-3.1013 3.3976-5.4073v-64.4869c0-2.306-1.3207-4.4079-3.3976-5.4073l-19.7648-9.510694c-2.0028-.96373-4.3468-.727677-6.1046.550264-.2511.18255-.4903.38638-.7148.61101l-37.8373 34.51972-16.4812-12.5106c-1.5342-1.1645-3.68021-1.0691-5.10514.2271l-5.28605 4.8084c-1.74296 1.5855-1.744958 4.3275-.00432 5.9156l14.29301 13.0398-14.29301 13.0398c-1.740638 1.588-1.73864 4.3301.00432 5.9156l5.28605 4.8084c1.42493 1.2962 3.57094 1.3916 5.10514.227l16.4812-12.5105 37.8373 34.5197c.5986.5989 1.3014 1.0499 2.0572 1.3444zm3.9392-69.1375-28.7098 21.7931 28.7098 21.7931z" fill="#fff" fill-rule="evenodd"/></mask><g mask="url(#d)"><path d="m92.6029 10.3644-19.7803-9.523878c-2.2895-1.102381-5.0257-.637373-6.8226 1.159478l-64.75337 59.0398c-1.741694 1.5881-1.739692 4.3301.00432 5.9156l5.28927 4.8084c1.4258 1.2962 3.57308 1.3917 5.10828.2271l77.978-59.1558c2.616-1.9846 6.3735-.1187 6.3735 3.1649v-.2296c0-2.305-1.3204-4.4061-3.3971-5.406z" fill="#0065a9"/><g filter="url(#a)"><path d="m92.6029 85.6357-19.7803 9.5238c-2.2895 1.1024-5.0257.6374-6.8226-1.1595l-64.75337-59.0398c-1.741694-1.588-1.739692-4.3301.00432-5.9156l5.28927-4.8084c1.4258-1.2962 3.57308-1.3916 5.10828-.227l77.978 59.1557c2.616 1.9846 6.3735.1188 6.3735-3.1649v.2297c0 2.3049-1.3204 4.4061-3.3971 5.406z" fill="#007acc"/></g><g filter="url(#b)"><path d="m72.8235 95.1613c-2.2903 1.1014-5.0265.6357-6.8235-1.1613 2.2141 2.2141 6 .646 6-2.4853v-87.02946c0-3.13127-3.7858-4.699427-6-2.48528 1.797-1.797019 4.5332-2.262684 6.8235-1.161277l19.7769 9.510717c2.0781.9994 3.3996 3.1013 3.3996 5.4073v64.4869c0 2.3059-1.3215 4.4079-3.3997 5.4072z" fill="#1f9cf0"/></g><path clip-rule="evenodd" d="m68.0171 95.3444c1.5119.589 3.2361.5512 4.7621-.1831l19.7648-9.5104c2.0769-.9994 3.3977-3.1013 3.3977-5.4073v-64.4869c0-2.3059-1.3208-4.4078-3.3976-5.4072l-19.7649-9.510755c-2.0028-.96373-4.3467-.727677-6.1046.550265-.2511.18255-.4902.38638-.7147.611l-37.8374 34.51979-16.4812-12.5106c-1.5342-1.1646-3.68016-1.0692-5.10509.227l-5.28605 4.8084c-1.74296 1.5855-1.744957 4.3276-.00432 5.9156l14.29306 13.0398-14.29306 13.0398c-1.740637 1.5881-1.73864 4.3301.00432 5.9156l5.28605 4.8085c1.42493 1.2961 3.57089 1.3916 5.10509.227l16.4812-12.5106 37.8374 34.5197c.5985.5989 1.3013 1.05 2.0572 1.3444zm3.9391-69.1375-28.7098 21.7931 28.7098 21.7931z" fill="url(#c)" fill-rule="evenodd" opacity=".25"/></g></svg>

<svg width="96" height="96" viewBox="0 0 96 96" fill="none" xmlns="http://www.w3.org/2000/svg">
<mask id="mask0" mask-type="alpha" maskUnits="userSpaceOnUse" x="0" y="0" width="96" height="96">
<path fill-rule="evenodd" clip-rule="evenodd" d="M68.0754 95.3445C69.5874 95.9335 71.3115 95.8957 72.8376 95.1614L92.6024 85.651C94.6793 84.6516 96 82.5497 96 80.2437V15.7568C96 13.4508 94.6793 11.3489 92.6024 10.3495L72.8376 0.838806C70.8348 -0.124924 68.4908 0.111129 66.733 1.38907C66.4819 1.57162 66.2427 1.77545 66.0182 2.00008L28.1809 36.5198L11.6997 24.0092C10.1655 22.8447 8.01949 22.9401 6.59456 24.2363L1.30851 29.0447C-0.43445 30.6302 -0.436448 33.3722 1.30419 34.9603L15.5972 48.0001L1.30419 61.0399C-0.436448 62.6279 -0.43445 65.37 1.30851 66.9555L6.59456 71.7639C8.01949 73.0601 10.1655 73.1555 11.6997 71.9909L28.1809 59.4804L66.0182 94.0001C66.6168 94.599 67.3196 95.05 68.0754 95.3445ZM72.0146 26.207L43.3048 48.0001L72.0146 69.7932V26.207Z" fill="white"/>
</mask>
<g mask="url(#mask0)">
<path d="M92.6029 10.3644L72.8226 0.840522C70.5331 -0.261859 67.7969 0.203149 66 2L1.24663 61.0398C-0.495064 62.6279 -0.493062 65.3699 1.25095 66.9554L6.54022 71.7638C7.96602 73.06 10.1133 73.1555 11.6485 71.9909L89.6265 12.8351C92.2425 10.8505 96 12.7164 96 16V15.7704C96 13.4654 94.6796 11.3643 92.6029 10.3644Z" fill="#0065A9"/>
<g filter="url(#filter0_d)">
<path d="M92.6029 85.6357L72.8226 95.1595C70.5331 96.2619 67.7969 95.7969 66 94L1.24663 34.9602C-0.495064 33.3722 -0.493062 30.6301 1.25095 29.0446L6.54022 24.2362C7.96602 22.94 10.1133 22.8446 11.6485 24.0092L89.6265 83.1649C92.2425 85.1495 96 83.2837 96 80V80.2297C96 82.5346 94.6796 84.6358 92.6029 85.6357Z" fill="#007ACC"/>
</g>
<g filter="url(#filter1_d)">
<path d="M72.8235 95.1613C70.5332 96.2627 67.797 95.797 66 94C68.2141 96.2141 72 94.646 72 91.5147V4.48524C72 1.35397 68.2142 -0.214187 66 1.99996C67.797 0.202941 70.5332 -0.262724 72.8235 0.838683L92.6004 10.3494C94.6785 11.3488 96 13.4507 96 15.7567V80.2436C96 82.5495 94.6785 84.6515 92.6003 85.6508L72.8235 95.1613Z" fill="#1F9CF0"/>
</g>
<g style="mix-blend-mode:overlay" opacity="0.25">
<path fill-rule="evenodd" clip-rule="evenodd" d="M68.0171 95.3444C69.529 95.9334 71.2532 95.8956 72.7792 95.1613L92.544 85.6509C94.6209 84.6515 95.9417 82.5496 95.9417 80.2436V15.7567C95.9417 13.4508 94.6209 11.3489 92.5441 10.3495L72.7792 0.838745C70.7764 -0.124985 68.4325 0.111068 66.6746 1.38901C66.4235 1.57156 66.1844 1.77539 65.9599 2.00001L28.1225 36.5198L11.6413 24.0092C10.1071 22.8446 7.96114 22.94 6.53621 24.2362L1.25016 29.0446C-0.4928 30.6301 -0.494797 33.3722 1.24584 34.9602L15.5389 48L1.24584 61.0398C-0.494797 62.6279 -0.4928 65.3699 1.25016 66.9554L6.53621 71.7639C7.96114 73.06 10.1071 73.1555 11.6413 71.9909L28.1225 59.4803L65.9599 94C66.5584 94.5989 67.2612 95.05 68.0171 95.3444ZM71.9562 26.2069L43.2464 48L71.9562 69.7931V26.2069Z" fill="url(#paint0_linear)"/>
</g>
</g>
<defs>
<filter id="filter0_d" x="-8.05835" y="15.1959" width="112.058" height="88.5558" filterUnits="userSpaceOnUse" color-interpolation-filters="sRGB">
<feFlood flood-opacity="0" result="BackgroundImageFix"/>
<feColorMatrix in="SourceAlpha" type="matrix" values="0 0 0 0 0 0 0 0 0 0 0 0 0 0 0 0 0 0 127 0"/>
<feOffset/>
<feGaussianBlur stdDeviation="4"/>
<feColorMatrix type="matrix" values="0 0 0 0 0 0 0 0 0 0 0 0 0 0 0 0 0 0 0.25 0"/>
<feBlend mode="overlay" in2="BackgroundImageFix" result="effect1_dropShadow"/>
<feBlend mode="normal" in="SourceGraphic" in2="effect1_dropShadow" result="shape"/>
</filter>
<filter id="filter1_d" x="58" y="-7.75256" width="46" height="111.505" filterUnits="userSpaceOnUse" color-interpolation-filters="sRGB">
<feFlood flood-opacity="0" result="BackgroundImageFix"/>
<feColorMatrix in="SourceAlpha" type="matrix" values="0 0 0 0 0 0 0 0 0 0 0 0 0 0 0 0 0 0 127 0"/>
<feOffset/>
<feGaussianBlur stdDeviation="4"/>
<feColorMatrix type="matrix" values="0 0 0 0 0 0 0 0 0 0 0 0 0 0 0 0 0 0 0.25 0"/>
<feBlend mode="overlay" in2="BackgroundImageFix" result="effect1_dropShadow"/>
<feBlend mode="normal" in="SourceGraphic" in2="effect1_dropShadow" result="shape"/>
</filter>
<linearGradient id="paint0_linear" x1="47.9417" y1="0.247498" x2="47.9417" y2="95.7526" gradientUnits="userSpaceOnUse">
<stop stop-color="white"/>
<stop offset="1" stop-color="white" stop-opacity="0"/>
</linearGradient>
</defs>
</svg>
